X:1757
T:Eavesdropper
O:england
M:6/8
L:1/8
C:Trad
R:Jig
K:G
D | GBB BAG | Bdd dBG | cee dBG | BAA A2 B | GBB BAG | Bdd dBG | cee dBG
| BGG G2 :|
d | gfg afd | efg d2 B | cee dBG | BAA A2 f | gab afd | efg dBG | cee dB
A
| BGG G2 :|


